configs/network-logos/fluence-light.svg

<svg xmlns="http://www.w3.org/2000/svg" fill="none" viewBox="0 0 1112 300">
  <g clip-path="url(#fluence-light_svg__a)">
    <path fill="#000" fill-rule="evenodd" d="M112.359 0H89.546v50.196C39.203 55.6 0 98.221 0 149.998c0 51.778 39.203 94.4 89.546 99.803V300h22.813v-50.329c49.792-5.921 88.401-48.288 88.401-99.673 0-51.384-38.609-93.751-88.401-99.672V0ZM22.814 149.998c0-39.162 29.022-71.545 66.732-76.815v153.631c-37.71-5.27-66.732-37.654-66.732-76.816Zm155.133 0c0 38.765-28.437 70.888-65.588 76.648V73.351c37.151 5.76 65.588 37.883 65.588 76.647Zm126.08-39.906c0-7.018 1.052-13.217 3.158-18.597 2.105-5.38 5.146-9.892 9.123-13.535 3.977-3.642 8.772-6.416 14.386-8.32 5.615-1.906 11.931-2.858 18.949-2.858 4.612 0 9.006.35 13.183 1.053 4.178.702 8.539 1.52 13.084 2.456l-2.106 19.049c-2.606-.736-5.647-1.387-9.123-1.956-3.475-.568-7.385-.852-11.73-.852-8.622 0-14.921 2.039-18.898 6.116-3.977 4.077-5.965 9.892-5.965 17.444v6.717h40.303v17.846h-40.303v90.631h-24.061v-90.631h-29.175v-17.846h29.175v-6.717Zm288.735 100.356c-3.676 5.347-8.137 9.508-13.384 12.482s-11.111 4.461-17.595 4.461c-5.614 0-10.744-.869-15.389-2.606-4.645-1.738-8.622-4.495-11.93-8.271-3.309-3.777-5.882-8.589-7.72-14.437-1.838-5.848-2.757-12.883-2.757-21.104v-64.164h23.961v64.365c0 5.213.384 9.524 1.153 12.932.769 3.409 1.955 6.116 3.559 8.121 1.604 2.005 3.609 3.426 6.015 4.261 2.407.835 5.281 1.253 8.622 1.253 6.417 0 11.597-1.253 15.54-3.759 3.943-2.507 6.918-5.899 8.923-10.176v-76.997h24.061v108.477h-21.655l-1.404-14.838Zm104.166 16.843c-8.021 0-15.339-1.337-21.956-4.01-6.617-2.674-12.281-6.35-16.993-11.028-4.713-4.679-8.372-10.21-10.978-16.593-2.607-6.383-3.91-13.283-3.91-20.702v-4.111c0-8.622 1.386-16.375 4.16-23.259s6.483-12.766 11.129-17.645c4.645-4.879 10.058-8.622 16.241-11.229 6.182-2.606 12.682-3.91 19.5-3.91 7.886 0 14.837 1.32 20.853 3.96 6.015 2.641 11.045 6.35 15.088 11.129 4.044 4.779 7.102 10.443 9.174 16.993 2.072 6.55 3.108 13.735 3.108 21.555v10.126h-75.192c.401 4.211 1.437 8.121 3.108 11.73s3.86 6.734 6.567 9.374c2.706 2.64 5.881 4.712 9.524 6.215 3.642 1.504 7.636 2.256 11.98 2.256 6.083 0 11.68-1.203 16.793-3.609 5.113-2.406 9.274-5.715 12.482-9.925l13.033 12.231c-1.738 2.607-3.977 5.13-6.717 7.569-2.74 2.44-5.948 4.612-9.625 6.517-3.676 1.905-7.803 3.442-12.381 4.612-4.578 1.169-9.574 1.754-14.988 1.754Zm-2.908-93.137c-3.342 0-6.449.601-9.323 1.804-2.874 1.203-5.448 2.958-7.72 5.264-2.273 2.306-4.194 5.113-5.765 8.421-1.57 3.309-2.69 7.068-3.358 11.279h50.829v-1.805a34.597 34.597 0 0 0-1.855-9.273c-1.036-2.975-2.556-5.631-4.561-7.971-2.005-2.339-4.528-4.21-7.569-5.614-3.042-1.404-6.601-2.105-10.678-2.105Zm97.248-17.345 1.504 15.039c3.943-5.414 8.705-9.608 14.286-12.582 5.581-2.975 11.78-4.462 18.598-4.462 5.547 0 10.61.802 15.188 2.407 4.579 1.604 8.522 4.11 11.831 7.519 3.308 3.408 5.881 7.82 7.719 13.233 1.838 5.414 2.757 11.931 2.757 19.55v67.773H839.19v-67.372c0-4.478-.518-8.221-1.554-11.228-1.036-3.008-2.506-5.414-4.411-7.219-1.905-1.804-4.227-3.091-6.968-3.86-2.74-.768-5.848-1.153-9.323-1.153-5.281 0-9.876 1.17-13.786 3.509-3.91 2.34-7.068 5.514-9.474 9.525v77.798h-24.061V116.809h21.655Zm148.98 91.433c2.941 0 5.798-.467 8.572-1.403 2.773-.936 5.23-2.239 7.368-3.91 2.139-1.671 3.827-3.643 5.063-5.915 1.237-2.273 1.822-4.746 1.755-7.419h22.658c.066 5.213-1.12 10.109-3.56 14.687-2.439 4.579-5.747 8.572-9.925 11.981-4.177 3.409-9.006 6.116-14.487 8.121-5.48 2.005-11.228 3.007-17.244 3.007-8.354 0-15.673-1.437-21.956-4.311-6.282-2.874-11.529-6.8-15.74-11.78-4.21-4.979-7.369-10.76-9.474-17.344-2.105-6.583-3.158-13.584-3.158-21.003v-3.61c0-7.419 1.053-14.436 3.158-21.053 2.105-6.617 5.264-12.399 9.474-17.344 4.211-4.946 9.458-8.873 15.74-11.781 6.283-2.907 13.568-4.361 21.856-4.361 6.55 0 12.616 1.003 18.196 3.008 5.581 2.005 10.394 4.812 14.437 8.422 4.044 3.609 7.185 7.92 9.424 12.932 2.239 5.013 3.325 10.494 3.259 16.442h-22.658c.067-2.94-.451-5.714-1.554-8.321a19.796 19.796 0 0 0-4.762-6.817c-2.072-1.938-4.512-3.476-7.319-4.612-2.807-1.136-5.882-1.704-9.223-1.704-5.013 0-9.191 1.019-12.532 3.057-3.342 2.039-6.016 4.712-8.021 8.021-2.005 3.308-3.425 7.068-4.261 11.279a65.804 65.804 0 0 0-1.253 12.832v3.61c0 4.411.418 8.722 1.253 12.933.836 4.21 2.256 7.97 4.261 11.278 2.005 3.309 4.679 5.982 8.021 8.021 3.341 2.038 7.552 3.057 12.632 3.057Zm126.322 19.049c-8.02 0-15.34-1.337-21.96-4.01-6.61-2.674-12.28-6.35-16.99-11.028-4.71-4.679-8.37-10.21-10.98-16.593-2.6-6.383-3.91-13.283-3.91-20.702v-4.111c0-8.622 1.39-16.375 4.16-23.259 2.78-6.884 6.49-12.766 11.13-17.645 4.65-4.879 10.06-8.622 16.24-11.229 6.19-2.606 12.69-3.91 19.5-3.91 7.89 0 14.84 1.32 20.86 3.96 6.01 2.641 11.04 6.35 15.08 11.129 4.05 4.779 7.11 10.443 9.18 16.993 2.07 6.55 3.11 13.735 3.11 21.555v10.126h-75.2c.4 4.211 1.44 8.121 3.11 11.73s3.86 6.734 6.57 9.374c2.71 2.64 5.88 4.712 9.52 6.215 3.65 1.504 7.64 2.256 11.98 2.256 6.09 0 11.68-1.203 16.8-3.609 5.11-2.406 9.27-5.715 12.48-9.925l13.03 12.231c-1.74 2.607-3.98 5.13-6.72 7.569-2.74 2.44-5.94 4.612-9.62 6.517-3.68 1.905-7.8 3.442-12.38 4.612-4.58 1.169-9.58 1.754-14.99 1.754Zm-3.52-93.26c-3.34 0-6.45.602-9.32 1.805-2.88 1.203-5.45 2.957-7.72 5.263-2.28 2.306-4.2 5.113-5.77 8.422-1.57 3.308-2.69 7.068-3.36 11.278h50.83v-1.804c-.2-3.208-.82-6.3-1.85-9.274-1.04-2.974-2.56-5.631-4.56-7.97-2.01-2.339-4.53-4.211-7.57-5.614-3.04-1.404-6.6-2.106-10.68-2.106ZM404.382 71.293h58.65v134.142h33.084v19.851h-91.734v-19.851h34.488V91.245h-34.488V71.292Z" clip-rule="evenodd"/>
  </g>
  <defs>
    <clipPath id="fluence-light_svg__a">
      <path fill="#fff" d="M0 0h1111.99v300H0z"/>
    </clipPath>
  </defs>
</svg>

<svg width="1112" height="300" viewBox="0 0 1112 300" fill="none" xmlns="http://www.w3.org/2000/svg">
<g clip-path="url(#clip0_1440_4504)">
<path fill-rule="evenodd" clip-rule="evenodd" d="M112.359 0H89.5456V50.1961C39.2027 55.5989 0 98.2205 0 149.998C0 201.776 39.2027 244.398 89.5456 249.801V300H112.359V249.671C162.151 243.75 200.76 201.383 200.76 149.998C200.76 98.6135 162.151 56.2465 112.359 50.3255V0ZM22.8137 149.998C22.8137 110.836 51.8358 78.453 89.5456 73.1825V226.814C51.8358 221.544 22.8137 189.16 22.8137 149.998ZM177.947 149.998C177.947 188.763 149.51 220.886 112.359 226.646V73.3512C149.51 79.1105 177.947 111.234 177.947 149.998ZM304.027 110.092C304.027 103.074 305.079 96.8754 307.185 91.495C309.29 86.1146 312.331 81.6031 316.308 77.9605C320.285 74.3178 325.08 71.5441 330.694 69.6393C336.309 67.7344 342.625 66.782 349.643 66.782C354.255 66.782 358.649 67.1329 362.826 67.8347C367.004 68.5365 371.365 69.3552 375.91 70.2909L373.804 89.3395C371.198 88.6043 368.157 87.9526 364.681 87.3845C361.206 86.8164 357.296 86.5323 352.951 86.5323C344.329 86.5323 338.03 88.5708 334.053 92.6479C330.076 96.725 328.088 102.54 328.088 110.092V116.809H368.391V134.655H328.088V225.286H304.027V134.655H274.852V116.809H304.027V110.092ZM592.762 210.448C589.086 215.795 584.625 219.956 579.378 222.93C574.131 225.904 568.267 227.391 561.783 227.391C556.169 227.391 551.039 226.522 546.394 224.785C541.749 223.047 537.772 220.29 534.464 216.514C531.155 212.737 528.582 207.925 526.744 202.077C524.906 196.229 523.987 189.194 523.987 180.973V116.809H547.948V181.174C547.948 186.387 548.332 190.698 549.101 194.106C549.87 197.515 551.056 200.222 552.66 202.227C554.264 204.232 556.269 205.653 558.675 206.488C561.082 207.323 563.956 207.741 567.297 207.741C573.714 207.741 578.894 206.488 582.837 203.982C586.78 201.475 589.755 198.083 591.76 193.806V116.809H615.821V225.286H594.166L592.762 210.448ZM696.928 227.291C688.907 227.291 681.589 225.954 674.972 223.281C668.355 220.607 662.691 216.931 657.979 212.253C653.266 207.574 649.607 202.043 647.001 195.66C644.394 189.277 643.091 182.377 643.091 174.958V170.847C643.091 162.225 644.477 154.472 647.251 147.588C650.025 140.704 653.734 134.822 658.38 129.943C663.025 125.064 668.438 121.321 674.621 118.714C680.803 116.108 687.303 114.804 694.121 114.804C702.007 114.804 708.958 116.124 714.974 118.764C720.989 121.405 726.019 125.114 730.062 129.893C734.106 134.672 737.164 140.336 739.236 146.886C741.308 153.436 742.344 160.621 742.344 168.441V178.567H667.152C667.553 182.778 668.589 186.688 670.26 190.297C671.931 193.906 674.12 197.031 676.827 199.671C679.533 202.311 682.708 204.383 686.351 205.886C689.993 207.39 693.987 208.142 698.331 208.142C704.414 208.142 710.011 206.939 715.124 204.533C720.237 202.127 724.398 198.818 727.606 194.608L740.639 206.839C738.901 209.446 736.662 211.969 733.922 214.408C731.182 216.848 727.974 219.02 724.297 220.925C720.621 222.83 716.494 224.367 711.916 225.537C707.338 226.706 702.342 227.291 696.928 227.291ZM694.02 134.154C690.678 134.154 687.571 134.755 684.697 135.958C681.823 137.161 679.249 138.916 676.977 141.222C674.704 143.528 672.783 146.335 671.212 149.643C669.642 152.952 668.522 156.711 667.854 160.922H718.683V159.117C718.483 155.909 717.864 152.818 716.828 149.844C715.792 146.869 714.272 144.213 712.267 141.873C710.262 139.534 707.739 137.663 704.698 136.259C701.656 134.855 698.097 134.154 694.02 134.154ZM791.268 116.809L792.772 131.848C796.715 126.434 801.477 122.24 807.058 119.266C812.639 116.291 818.838 114.804 825.656 114.804C831.203 114.804 836.266 115.606 840.844 117.211C845.423 118.815 849.366 121.321 852.675 124.73C855.983 128.138 858.556 132.55 860.394 137.963C862.232 143.377 863.151 149.894 863.151 157.513V225.286H839.19V157.914C839.19 153.436 838.672 149.693 837.636 146.686C836.6 143.678 835.13 141.272 833.225 139.467C831.32 137.663 828.998 136.376 826.257 135.607C823.517 134.839 820.409 134.454 816.934 134.454C811.653 134.454 807.058 135.624 803.148 137.963C799.238 140.303 796.08 143.477 793.674 147.488V225.286H769.613V116.809H791.268ZM940.248 208.242C943.189 208.242 946.046 207.775 948.82 206.839C951.593 205.903 954.05 204.6 956.188 202.929C958.327 201.258 960.015 199.286 961.251 197.014C962.488 194.741 963.073 192.268 963.006 189.595H985.664C985.73 194.808 984.544 199.704 982.104 204.282C979.665 208.861 976.357 212.854 972.179 216.263C968.002 219.672 963.173 222.379 957.692 224.384C952.212 226.389 946.464 227.391 940.448 227.391C932.094 227.391 924.775 225.954 918.492 223.08C912.21 220.206 906.963 216.28 902.752 211.3C898.542 206.321 895.383 200.54 893.278 193.956C891.173 187.373 890.12 180.372 890.12 172.953V169.343C890.12 161.924 891.173 154.907 893.278 148.29C895.383 141.673 898.542 135.891 902.752 130.946C906.963 126 912.21 122.073 918.492 119.165C924.775 116.258 932.06 114.804 940.348 114.804C946.898 114.804 952.964 115.807 958.544 117.812C964.125 119.817 968.938 122.624 972.981 126.234C977.025 129.843 980.166 134.154 982.405 139.166C984.644 144.179 985.73 149.66 985.664 155.608H963.006C963.073 152.668 962.555 149.894 961.452 147.287C960.349 144.68 958.762 142.408 956.69 140.47C954.618 138.532 952.178 136.994 949.371 135.858C946.564 134.722 943.489 134.154 940.148 134.154C935.135 134.154 930.957 135.173 927.616 137.211C924.274 139.25 921.6 141.923 919.595 145.232C917.59 148.54 916.17 152.3 915.334 156.511C914.499 160.721 914.081 164.999 914.081 169.343V172.953C914.081 177.364 914.499 181.675 915.334 185.886C916.17 190.096 917.59 193.856 919.595 197.164C921.6 200.473 924.274 203.146 927.616 205.185C930.957 207.223 935.168 208.242 940.248 208.242ZM1066.57 227.291C1058.55 227.291 1051.23 225.954 1044.61 223.281C1038 220.607 1032.33 216.931 1027.62 212.253C1022.91 207.574 1019.25 202.043 1016.64 195.66C1014.04 189.277 1012.73 182.377 1012.73 174.958V170.847C1012.73 162.225 1014.12 154.472 1016.89 147.588C1019.67 140.704 1023.38 134.822 1028.02 129.943C1032.67 125.064 1038.08 121.321 1044.26 118.714C1050.45 116.108 1056.95 114.804 1063.76 114.804C1071.65 114.804 1078.6 116.124 1084.62 118.764C1090.63 121.405 1095.66 125.114 1099.7 129.893C1103.75 134.672 1106.81 140.336 1108.88 146.886C1110.95 153.436 1111.99 160.621 1111.99 168.441V178.567H1036.79C1037.19 182.778 1038.23 186.688 1039.9 190.297C1041.57 193.906 1043.76 197.031 1046.47 199.671C1049.18 202.311 1052.35 204.383 1055.99 205.886C1059.64 207.39 1063.63 208.142 1067.97 208.142C1074.06 208.142 1079.65 206.939 1084.77 204.533C1089.88 202.127 1094.04 198.818 1097.25 194.608L1110.28 206.839C1108.54 209.446 1106.3 211.969 1103.56 214.408C1100.82 216.848 1097.62 219.02 1093.94 220.925C1090.26 222.83 1086.14 224.367 1081.56 225.537C1076.98 226.706 1071.98 227.291 1066.57 227.291ZM1063.05 134.031C1059.71 134.031 1056.6 134.633 1053.73 135.836C1050.85 137.039 1048.28 138.793 1046.01 141.099C1043.73 143.405 1041.81 146.212 1040.24 149.521C1038.67 152.829 1037.55 156.589 1036.88 160.799H1087.71V158.995C1087.51 155.787 1086.89 152.695 1085.86 149.721C1084.82 146.747 1083.3 144.09 1081.3 141.751C1079.29 139.412 1076.77 137.54 1073.73 136.137C1070.69 134.733 1067.13 134.031 1063.05 134.031ZM404.382 71.2935H463.032V205.435H496.116V225.286H404.382V205.435H438.87V91.2443H404.382V71.2935Z" fill="black"/>
</g>
<defs>
<clipPath id="clip0_1440_4504">
<rect width="1111.99" height="300" fill="white"/>
</clipPath>
</defs>
</svg>
